X: 13087
T: Fiona's
R: jig
M: 6/8
K: Gminor
A|:BAG DGA|BAG c2B|A^FD CDE|D^FD d2A|
BAG DGA|BAG c2B|A^FD CDE|1 D^FD G2 A:|2 D^FD GBd||
g3 d3|edc d2B|A^FD cA^F|dAd ^fd^f|
g^fg dBd|edc d2B|A^FD c3|1 AG^F GBd:|2 AG^F G2 A||

